!!!!SEGMENT: pl-sa--155-a-iv-5--005_luna-georgius--vesperae-in-d-laudate-dominum.krn
!!!cenid: 17xx:524
!!!COM: Luna, Georgius
!!!COM-rismid: pe41010079
!!!CDT:
!!!CNT:
!!!OPR: Vesperae in D
!!!OTL: Laudate Dominum
!!!OMV: 005
!!!PDT:
!!!AGN: Sacred; Vespers
!!!SMS-siglum: PL-SA
!!!SMS-shelfmark: 155/A IV 5
!!!SMS-shelfwork: 001-005 M
!!!SMS-variant:
!!!SMS-altvar:
!!!NIFC-rismid: 1001070698
!!!URL-scan: http://bc.bdsandomierz.pl/dlibra/publication/1541/edition/1509/content
!!!ONB-nifc: UWAGA: części Vesperae: Dixit Dominus, Confitebor, Beatus vir, Laudate pueri,
**kern	**dynam	**kern	**kern	**dynam	**kern	**text	**kern	**text
*part5	*part5	*part4	*part3	*part3	*part2	*part2	*part1	*part1
*staff5	*	*staff4	*staff3	*	*staff2	*staff2	*staff1	*staff1
*group3	*	*group2	*group2	*	*group1	*	*group1	*
*I"Fundamento	*	*I"Violino Secundo	*I"Violino Primo	*	*I"Tenor	*	*I"Canto	*
*I'B	*	*I'Vno II	*I'Vno I	*	*I'T	*	*I'C	*
*clefF4	*	*clefG2	*clefG2	*	*clefC4	*	*clefC1	*
*k[f#c#]	*	*k[f#c#]	*k[f#c#]	*	*k[f#c#]	*	*k[f#c#]	*
*D:	*	*D:	*D:	*	*D:	*	*D:	*
*M4/4	*	*M4/4	*M4/4	*	*M4/4	*	*M4/4	*
*met(c)	*	*met(c)	*met(c)	*	*met(c)	*	*met(c)	*
!LO:TX:b:t=Laudate Dominum	!	!	!LO:TX:b:t=Laudate Dominum	!	!	!	!	!
!LO:TX:a:t=allo ro mol	!	!LO:TX:b:t=Laudate Dnu	!LO:TX:a:t=Allo	!	!	!	!	!
8r	.	8a/	8a/	.	8r	.	8r	.
=1	=1	=1	=1	=1	=1	=1	=1	=1
8d\L	.	8f#/	8dd\	.	00r	.	00r	.
8c#\	.	4f#/	4dd\	.	.	.	.	.
8B\	.	.	.	.	.	.	.	.
8A\J	.	8ff#\	8ddd\	.	.	.	.	.
8B\L	.	8f#/	8dd\	.	.	.	.	.
8A\	.	4f#/	4dd\	.	.	.	.	.
8G\	.	.	.	.	.	.	.	.
8F#\J	.	8ff#\	8ddd\	.	.	.	.	.
=2	=2	=2	=2	=2	=2	=2	=2	=2
!LO:TX:a:t=problem:mixed beam	!	!	!	!	!	!	!	!
8G\L	.	8b\L	8ee\L	.	.	.	.	.
8E\	.	8gg\	8bb\	.	.	.	.	.
8A\	.	8ff#\	8aa\	.	.	.	.	.
8AA/J	.	8ee\J	8gg\J	.	.	.	.	.
!LO:TX:a:t=problem:mixed beam	!	!	!	!	!	!	!	!
8D/L	.	8dd\L	16ff#\LL	.	.	.	.	.
.	.	.	16ee\J	.	.	.	.	.
8d\	.	8ff#\	8dd\J	.	.	.	.	.
8A\	.	8dd\	8r	.	.	.	.	.
8F#\J	.	8a\J	8a/	.	.	.	.	.
=3	=3	=3	=3	=3	=3	=3	=3	=3
8D/L	.	8f#/	8d/	.	.	.	.	.
8C#/	.	4f#/	4d/	.	.	.	.	.
8BB/	.	.	.	.	.	.	.	.
8AA/J	.	8f#/	8dd\	.	.	.	.	.
8BB/L	.	8f#/	8d/	.	.	.	.	.
8AA/	.	4f#/	4d/	.	.	.	.	.
8GG/	.	.	.	.	.	.	.	.
8FF#/J	.	8f#/	8dd\	.	.	.	.	.
=4	=4	=4	=4	=4	=4	=4	=4	=4
!	!	!	!LO:TX:a:t=problem:mixed beam	!	!	!	!	!
8GG/L	.	8B/L	8e/L	.	.	.	.	.
8EE/	.	8g/	8b\	.	.	.	.	.
8AA/	.	8f#/	8a\	.	.	.	.	.
8AA/J	.	8e/J	8g\J	.	.	.	.	.
8D\L	.	8d/L	16f#/LL	.	.	.	.	.
.	.	.	16e/J	.	.	.	.	.
8E\	.	16f#/L	8d/J	.	.	.	.	.
.	.	16g/JJ	.	.	.	.	.	.
8F#\	.	8a/L	16r	.	.	.	.	.
.	.	.	16a\LL	.	.	.	.	.
8D\J	.	8f#/J	16dd\	.	.	.	.	.
.	.	.	16ff#\JJ	.	.	.	.	.
=5	=5	=5	=5	=5	=5	=5	=5	=5
!	!	!LO:TX:a:t=problem:mixed beam	!	!	!	!	!	!
8G\L	.	8d/L	[4bn\	.	0r	.	1r	.
8F#\	.	16b\L	.	.	.	.	.	.
.	.	16a\JJ	.	.	.	.	.	.
8G\	.	8b\L	16b\LL]	.	.	.	.	.
.	.	.	16b\	.	.	.	.	.
8E\J	.	8g\J	16ee\	.	.	.	.	.
.	.	.	16gg\JJ	.	.	.	.	.
.	.	.	8qqdd/	.	.	.	.	.
8A\L	.	8r	[4cc#\	.	.	.	.	.
8G\	.	16cc#\LL	.	.	.	.	.	.
.	.	16b\JJ	.	.	.	.	.	.
8A\	.	8cc#\L	16cc#\LL]	.	.	.	.	.
.	.	.	16cc#\	.	.	.	.	.
8F#\J	.	8a\J	16ff#\	.	.	.	.	.
.	.	.	16aa\JJ	.	.	.	.	.
=6	=6	=6	=6	=6	=6	=6	=6	=6
.	.	.	8qqee/	.	.	.	.	.
8B\L	.	8r	[4dd\	.	.	.	2r	.
8A\	.	16dd\LL	.	.	.	.	.	.
.	.	16cc#\JJ	.	.	.	.	.	.
8B\	.	8dd\L	16dd\LL]	.	.	.	.	.
.	.	.	16dd\	.	.	.	.	.
8G\J	.	8b\J	16gg\	.	.	.	.	.
.	.	.	16bb\JJ	.	.	.	.	.
!	!	!	!LO:TX:a:t=problem:mixed beam	!	!	!	!	!
8A\L	.	8e/L	8cc#\L	.	.	.	4r	.
16F#\L	.	8f#/	8dd\	.	.	.	.	.
16G\JJ	.	.	.	.	.	.	.	.
!LO:TX:a:t=Solo	!	!	!	!	!	!	!	!
8A\L	.	8e/	8e/	.	.	.	8r	.
8A\J	.	8e/J	8cc#\J	.	.	.	8a\	Lau-
!	!	!LO:LB:g=original	!LO:LB:g=original	!	!	!	!	!
=7	=7	=7	=7	=7	=7	=7	=7	=7
8d\L	.	4f#/	4dd\	.	1r	.	4dd\	-da-
8c#\	.	.	.	.	.	.	.	.
8B\	.	4r	4r	.	.	.	4dd\	-te
8A\J	.	.	.	.	.	.	.	.
8B\L	.	2r	2r	.	.	.	4dd\	Do-
8A\	.	.	.	.	.	.	.	.
8G\	.	.	.	.	.	.	8dd\	-mi-
8F#\J	.	.	.	.	.	.	8dd\	-num
=8	=8	=8	=8	=8	=8	=8	=8	=8
!LO:TX:a:t=problem:mixed beam	!	!	!	!	!	!	!	!
8G\L	.	2r	2r	.	2r	.	8ee\L	om-
8E\	.	.	.	.	.	.	8ff#\J	.
8A\	.	.	.	.	.	.	8ee\L	-nes
8AA/J	.	.	.	.	.	.	8dd\J	.
!LO:LB:g=original	!	!	!	!	!	!	!	!
8D\L	.	4r	4r	.	4r	.	16ee\LL	gen-
.	.	.	.	.	.	.	16dd\JJ	.
16E\L	.	.	.	.	.	.	8cc#\	-tes
16F#\JJ	.	.	.	.	.	.	.	.
16G\LL	.	8r	8r	.	8r	.	8r	.
16A\	.	.	.	.	.	.	.	.
16B\	.	8a/	8a/	.	8d\	Lau-	8ff#\	lau-
16c#\JJ	.	.	.	.	.	.	.	.
!	!	!	!	!	!	!	!LO:LB:g=original	!
=9	=9	=9	=9	=9	=9	=9	=9	=9
8d\L	.	8f#/	8dd\	.	4d\	-da-	4ff#\	-da-
8c#\	.	4f#/	4dd\	.	.	.	.	.
8B\	.	.	.	.	4d\	-te	4ff#\	-te
8A\J	.	8f#/	8ddd\	.	.	.	.	.
8B\L	.	8f#/	8dd\	.	4d\	e-	4ff#\	e-
8A\	.	4f#/	4dd\	.	.	.	.	.
8G\	.	.	.	.	4d\	-um	4ff#\	-um
8F#\J	.	8ff#\	8ddd\	.	.	.	.	.
=10	=10	=10	=10	=10	=10	=10	=10	=10
!LO:TX:a:t=problem:mixed beam	!	!	!	!	!	!	!	!
8G\L	.	8b\L	8ee\L	.	4B\	om-	4ee\	om-
8E\	.	8gg\	8bb\	.	.	.	.	.
8A\	.	8ff#\	8aa\	.	4c#\	-nes	4ee\	-nes
8AA/J	.	8ee\J	8gg\J	.	.	.	.	.
8D\L	.	16dd\LL	16ff#\LL	.	16d\	po-	16ff#\	po-
.	.	16cc#\J	16ee\J	.	16d\	-pu-	16ff#\	-pu-
8E\	.	8dd\J	8dd\J	.	8d\	-li	8ff#\	-li
!	!	!	!LO:TX:a:t=problem:mixed beam	!	!	!	!	!
8F#\	.	16a\LL	32dd\LLL	.	8A/	quo-	8dd\	quo-
.	.	.	32d/	.	.	.	.	.
.	.	16a\	32e/	.	.	.	.	.
.	.	.	32f#/	.	.	.	.	.
8E\J	.	16a\	32g/	.	16A/	-ni-	16dd\	-ni-
.	.	.	32a/	.	.	.	.	.
.	.	16a\JJ	32b/	.	16A/	-am	16dd\	-am
.	.	.	32cc#/JJJ	.	.	.	.	.
=11	=11	=11	=11	=11	=11	=11	=11	=11
8D\L	.	16a\LL	16dd\LL	.	8A/	Con-	8dd\	Con-
.	.	16a\	16ee\	.	.	.	.	.
8E\	.	16a\	16ff#\	.	8A/	-fir-	8dd\	-fir-
.	.	16a\JJ	16gg\JJ	.	.	.	.	.
!	!	!LO:N:vis=16	!	!	!	!	!	!
8F#\	.	32a\LLL	8aa\L	.	8A/	-ma-	8dd\	-ma-
!	!	!LO:N:vis=16	!	!	!	!	!	!
.	.	32a\	.	.	.	.	.	.
!	!	!LO:N:vis=16	!	!	!	!	!	!
.	.	32a\	.	.	.	.	.	.
!	!	!LO:N:vis=16	!	!	!	!	!	!
.	.	32a\JJJ	.	.	.	.	.	.
!	!	!LO:N:vis=16	!	!	!	!	!	!
8D\J	.	32a\LLL	8ccn\J	.	8A/	-ta	8ccn\	-ta
!	!	!LO:N:vis=16	!	!	!	!	!	!
.	.	32a\	.	.	.	.	.	.
!	!	!LO:N:vis=16	!	!	!	!	!	!
.	.	32a\	.	.	.	.	.	.
!	!	!LO:N:vis=16	!	!	!	!	!	!
.	.	32a\JJJ	.	.	.	.	.	.
!LO:TX:a:t=problem:mixed beam	!	!	!	!	!	!	!	!
.	.	.	8qqcc/	.	.	.	.	.
8G\L	.	16d/LL	4b\	.	8G/	est	8b\	est
.	.	16d/	.	.	.	.	.	.
8GG/	.	16d/	.	.	16B\	su-	16ee\	su-
.	.	16d/JJ	.	.	16B\	-per	16ee\	-per
!	!	!	!LO:TX:a:t=problem:mixed beam	!	!LO:LB:g=original	!	!LO:LB:g=original	!
8G#X\	.	16b\LL	32ee\LLL	.	8B\	nos	8ee\	nos
.	.	.	32e/	.	.	.	.	.
.	.	16b\	32f#/	.	.	.	.	.
.	.	.	32g#X/	.	.	.	.	.
8F#\J	.	16b\	32a/	.	8B\	mi-	8ee\	mi-
.	.	.	32b/	.	.	.	.	.
.	.	16b\JJ	32cc#X/	.	.	.	.	.
.	.	.	32dd/JJJ	.	.	.	.	.
=12	=12	=12	=12	=12	=12	=12	=12	=12
8E\L	.	16b\LL	16ee\LL	.	8B\	-se-	8ee\	-se-
.	.	16b\	16ff#\	.	.	.	.	.
8F#\	.	16b\	16gg#X\	.	8B\	-ri-	8ee\	-ri-
.	.	16b\JJ	16aa\JJ	.	.	.	.	.
8G#X\	.	16b\LL	8bb\L	.	8B\	-cor-	8ee\	-cor-
.	.	16b\	.	.	.	.	.	.
8E\J	.	16b\	8ddn\J	.	8B\	-dia	16ddn\	-di-
.	.	16b\JJ	.	.	.	.	16dd\	-a
!LO:TX:a:t=problem:mixed beam	!	!	!LO:LB:g=original	!	!	!	!	!
8A\L	.	8a\L	16cc#\LL	.	8A/	e-	8cc#\	e-
.	.	.	16a\	.	.	.	.	.
8AA/	.	8cc#\	16cc#\	.	8A/	-jus	8cc#\	-jus
.	.	.	16ee\JJ	.	.	.	.	.
8D\	.	8a\	8.ff#\L	.	4A/	et	4ff#\	et
8D\J	.	8ff#\J	.	.	.	.	.	.
.	.	.	(32gg#X\LL	.	.	.	.	.
.	.	.	32aa\JJJ)	.	.	.	.	.
!	!	!LO:LB:g=original	!	!	!	!	!	!
=13	=13	=13	=13	=13	=13	=13	=13	=13
!LO:TX:a:t=problem:mixed beam	!	!	!	!	!	!	!	!
8E\L	.	8.b\L	8.gg#X\L	.	8B\	ve-	8gg#X\	ve-
8E\	.	.	.	.	16d\	-ri-	16ff#\	-ri-
.	.	16dd\Jk	16ff#\Jk	.	16d\	-tas	16ff#\	-tas
8GG#X/	.	8.cc#\L	8.ee\L	.	8c#\	Do-	8ee\	Do-
8GG#/J	.	.	.	.	8B\	-mi-	8dd\	-mi-
.	.	16b\Jk	16dd\Jk	.	.	.	.	.
!	!	!LO:TX:a:t=problem:mixed beam	!	!	!	!	!	!
8AA/L	.	8a\L	4cc#\	.	4A\	-ni	4cc#\	-ni
8C#/	.	8ee\	.	.	.	.	.	.
*	*	*	*Xtuplet	*	*	*	*	*
!	!	!	!LO:TX:a:t=problem:brak oznaczenia trioli	!	!	!	!	!
8D/	.	8f#/	24ff#\LL	.	8F#/	ma-	16ff#\LL	ma-
.	.	.	24ee\	.	.	.	.	.
.	.	.	.	.	.	.	16dd\JJ	.
.	.	.	24dd\JJ	.	.	.	.	.
!	!	!	!LO:TX:a:t=problem:brak oznaczenia trioli	!	!	!	!	!
8D/J	.	8f#/J	24cc#\LL	.	8F#/	-net	16b\LL	-net
.	.	.	24b\	.	.	.	.	.
.	.	.	.	.	.	.	16a\JJ	.
.	.	.	24a\JJ	.	.	.	.	.
!	!	!	!	!	!	!	!LO:LB:g=original	!
=14	=14	=14	=14	=14	=14	=14	=14	=14
!	!	!	!	!	!	!	!LO:TX:a:t=SIC:s=g#	!
8D\L	.	8B/L	8g#X/L	.	8B\	in	8g\	in
16C#\L	.	8c#/J	8a/	.	8c#\	ae-	8a\	ae-
16D\JJ	.	.	.	.	.	.	.	.
!LO:TX:a:t=problem:mixed beam	!	!	!	!	!	!	!	!
8E\L	.	4B/	8e/	.	4G#X/	-ter-	4bT\	-ter-
8EE/J	.	.	8g#/J	.	.	.	.	.
8AA/L	.	8c#/L	4a/	.	4A\	-num	4a\	-num
16AA/L	.	16c#/L	.	.	.	.	.	.
16BB/JJ	.	16d/JJ	.	.	.	.	.	.
8C#/L	.	8e/L	16r	.	4r	.	4r	.
.	.	.	16e/LL	.	.	.	.	.
8AA/J	.	8c#/J	16a/	.	.	.	.	.
.	.	.	16cc#/JJ	.	.	.	.	.
!LO:LB:g=original	!	!	!	!	!	!	!	!
=15	=15	=15	=15	=15	=15	=15	=15	=15
.	.	.	8qqgn/	.	.	.	.	.
8D\L	.	4.A/	[4f#/	.	0r	.	0r	.
8C#\	.	.	.	.	.	.	.	.
8D\	.	.	16f#/LL]	.	.	.	.	.
.	.	.	16f#/	.	.	.	.	.
8BB\J	.	8f#/	16b/	.	.	.	.	.
.	.	.	16dd/JJ	.	.	.	.	.
.	.	.	8qqa/	.	.	.	.	.
8E\L	.	4.B/	[4g#X/	.	.	.	.	.
8D\	.	.	.	.	.	.	.	.
8E\	.	.	16g#/LL]	.	.	.	.	.
.	.	.	16g#/	.	.	.	.	.
8C#\J	.	8g/	16cc#/	.	.	.	.	.
.	.	.	16ee/JJ	.	.	.	.	.
=16	=16	=16	=16	=16	=16	=16	=16	=16
.	.	.	8qqb/	.	.	.	.	.
8F#\L	.	4.c#/	[4a/	.	.	.	.	.
8E\	.	.	.	.	.	.	.	.
8F#\	.	.	16a/LL]	.	.	.	.	.
.	.	.	16a/	.	.	.	.	.
8D\J	.	8a/	16dd/	.	.	.	.	.
.	.	.	16ff#/JJ	.	.	.	.	.
8E\L	.	8B/L	8g#X/L	.	.	.	.	.
16C#\L	.	8c#/	8a/	.	.	.	.	.
16D\JJ	.	.	.	.	.	.	.	.
8E\L	.	8c#/	8e/	.	.	.	.	.
8E\J	.	8B/J	8g#/J	.	.	.	.	.
!	!	!	!	!	!LO:LB:g=original	!	!	!
=17	=17	=17	=17	=17	=17	=17	=17	=17
8A\L	.	8c#/	8a/	.	4A\	Glo-	4cc#\	Glo-
8G#X\	.	4c#/	4a/	.	.	.	.	.
8F#\	.	.	.	.	8A\	-ri-	8cc#\	-ri-
8E\J	.	8cc#\	8aa\	.	8A\	-a	8cc#\	-a
!	!	!	!LO:LB:g=original	!	!	!	!	!
8F#\L	.	8c#/	8a/	.	4A\	Pa-	4cc#\	Pa-
8E\	.	4c#/	4a/	.	.	.	.	.
8D\	.	.	.	.	4A\	-tri	4cc#\	-tri
8C#\J	.	8cc#\	8aa\	.	.	.	.	.
=18	=18	=18	=18	=18	=18	=18	=18	=18
!	!	!LO:TX:a:t=problem:mixed beam	!	!	!	!	!	!
8D\L	.	8f#/L	8b\L	.	4F#/	Glo-	4b\	Glo-
8BB\J	.	8dd\	8ff#\	.	.	.	.	.
!LO:TX:a:t=problem:mixed beam	!	!	!	!	!	!	!	!
8E\L	.	8cc#\	8ee\	.	8G#X/	-ri-	8b\	-ri-
8EE/J	.	8b\J	8dd\J	.	8G#/	-a	8b\	-a
4AA/	.	16a/LL	16cc#\LL	.	16A/	Fi-	16cc#\	Fi-
.	.	16g#X/J	16b\J	.	16A/	-li-	16cc#\	-li-
.	.	8a/J	8a\J	.	8A/	-o	8cc#\	-o
8C#/L	.	8ee\L	16a\LL	.	8A/	et	8cc#\	et
.	.	.	16cc#\	.	.	.	.	.
8AA/J	.	8cc#\J	16ee\	.	8A/	Spi-	8cc#\	Spi-
.	.	.	16aa\JJ	.	.	.	.	.
!	!	!LO:LB:g=original	!	!	!	!	!	!
=19	=19	=19	=19	=19	=19	=19	=19	=19
!LO:TX:a:t=problem:mixed beam	!	!LO:TX:a:t=problem:mixed beam	!	!	!	!	!	!
8D\L	.	8f#/L	8b\L	.	4F#/	-ri-	4b\	-ri-
8BB\	.	8dd\	8ff#\	.	.	.	.	.
8E\	.	8cc#\	8ee\	.	8G#X/	-tu-	4b\	-tui
8EE/J	.	8b\J	8dd\J	.	8G#/	-i	.	.
!	!	!	!	!	!	!	!LO:LB:g=original	!
4AA/	.	16a/LL	16cc#\LL	.	8A/	San-	8cc#\	San-
.	.	16g#X/J	16b\J	.	.	.	.	.
.	.	8a/J	8a\J	.	8A/	-cto	8cc#\	-cto
8C#/L	.	16e/LL	16a\LL	.	8c#\	Si-	8ee\	Si-
.	.	16a/JJ	16cc#\	.	.	.	.	.
8AA/J	.	16cc#\LL	16ee\	.	8c#\	-cut	8ee\	-cut
.	.	16ff#\JJ	16aa\JJ	.	.	.	.	.
=20	=20	=20	=20	=20	=20	=20	=20	=20
!LO:TX:a:t=problem:mixed beam	!	!	!	!	!	!	!	!
8AA/L	.	4ee\	4gg\	.	4c#\	e-	4gg\	e-
16A\L	.	.	.	.	.	.	.	.
16G#X\JJ	.	.	.	.	.	.	.	.
!LO:TX:a:t=problem:mixed beam	!	!	!	!	!	!	!	!
8A\L	.	4ee\	4gg\	.	4c#\	-rat	4gg\	-rat
8AA/J	.	.	.	.	.	.	.	.
8AA/L	.	16ee\LL	16gg\LL	.	8c#\	in	8gg\	in
.	.	16dd\	16ff#\	.	.	.	.	.
8AA/	.	16cc#\	16ee\	.	8c#\	prin-	8gg\	prin-
.	.	16b\JJ	16dd\JJ	.	.	.	.	.
8AA/	.	16a/LL	16cc#\LL	.	8c#\	-ci-	8gg\	-ci-
.	.	16gn/	16b\	.	.	.	.	.
8AA/J	.	16f#/	16a\	.	8c#\	-pi-	8gg\	-pi-
.	.	16e/JJ	16gn\JJ	.	.	.	.	.
!	!	!	!	!	!LO:LB:g=original	!	!	!
=21	=21	=21	=21	=21	=21	=21	=21	=21
.	.	.	8qqg/	.	.	.	.	.
8D\L	.	4d/	4f#/	.	4d\	-o	4ff#\	-o
8E\	.	.	.	.	.	.	.	.
8F#\	.	4a/	16r	.	8r	.	8r	.
.	.	.	16a\LL	.	.	.	.	.
8D\J	.	.	16dd\	.	8A/	et	8dd\	et
.	.	.	16ff#\JJ	.	.	.	.	.
.	.	.	8qqccn/	.	.	.	8qqcc#/	.
8G\L	.	4.d/	[4b\	.	4D/	nunc	4b\	nunc
8F#\	.	.	.	.	.	.	.	.
8G\	.	.	16b\LL]	.	8r	.	8r	.
.	.	.	16b\	.	.	.	.	.
8E\J	.	8b\	16ee\	.	8B\	et	8ee\	et
.	.	.	16gg\JJ	.	.	.	.	.
!LO:LB:g=original	!	!	!	!	!	!	!	!
=22	=22	=22	=22	=22	=22	=22	=22	=22
.	.	.	8qqdd/	.	.	.	8qqdd/	.
8A\L	.	4.e/	4cc#X\	.	8E/	sem-	8cc#\	sem-
8G\	.	.	.	.	8E/	-per	8cc#\	-per
!	!	!	!	!	!	!	!LO:LB:g=original	!
8A\	.	.	16cc#\LL	.	8r	.	8r	.
.	.	.	16cc#\	.	.	.	.	.
8F#\J	.	8cc#\	16ff#\	.	16c#\	et	16ff#\	et
.	.	.	16aa\JJ	.	16c#\	in	16ff#\	in
.	.	.	8qqee/	.	.	.	.	.
8B\L	.	4.f#/	4dd\	.	16F#/	sae-	16dd\	sae-
.	.	.	.	.	16F#/	-cu-	16dd\	-cu-
8A\	.	.	.	.	8F#/	-la	8dd\	-la
8B\	.	.	16dd\LL	.	8r	.	8r	.
.	.	.	16dd\	.	.	.	.	.
8G\J	.	8dd\	16gg\	.	16d\	sae-	16gg\	sae-
.	.	.	16bb\JJ	.	16d\	-cu-	16gg\	-cu-
!	!	!	!LO:LB:g=original	!	!	!	!	!
=23	=23	=23	=23	=23	=23	=23	=23	=23
!	!	!	!LO:TX:a:t=problem:mixed beam	!	!	!	!	!
8A\L	.	8e/L	8cc#\L	.	8c#\	-lo-	8ee\	-lo-
16F#\L	.	8f#/	8dd\	.	8d\	-rum	8ff#\	-rum
16G\JJ	.	.	.	.	.	.	.	.
!LO:TX:a:t=problem:mixed beam	!	!	!	!	!	!	!	!
8A\L	.	8e/	8e/	.	4c#\	a-	4ee\	a-
8AA/J	.	8e/J	8cc#\J	.	.	.	.	.
!	!LO:DY:t=psmo	!	!	!LO:DY:t=pia	!	!	!	!
!	!LO:DY:a	!	!	!LO:DY:a	!	!	!	!
8D\L	pp	8f#/L	4dd\	p	4d\	-men	4ff#\	-men
8E\	.	16f#/L	.	.	.	.	.	.
.	.	16g/JJ	.	.	.	.	.	.
8F#\	.	8a/L	16r	.	8r	.	8r	.
.	.	.	16a\LL	.	.	.	.	.
8D\J	.	8f#/J	16dd\	.	8A/	a-	8dd\	a-
.	.	.	16ff#\JJ	.	.	.	.	.
=24	=24	=24	=24	=24	=24	=24	=24	=24
.	.	.	8qqccn/	.	.	.	8qqcc#/	.
8G\L	.	4.d/	[4b\	.	4D/	-men	4b\	-men
8F#\	.	.	.	.	.	.	.	.
8G\	.	.	16b\LL]	.	8r	.	8r	.
.	.	.	16b\	.	.	.	.	.
8E\J	.	8b\	16ee\	.	8B\	a-	8ee\	a-
.	.	.	16gg\JJ	.	.	.	.	.
.	.	.	8qqdd/	.	.	.	8qqdd/	.
8A\L	.	4.e/	4cc#X\	.	4E/	-men	4cc#\	-men
8G\	.	.	.	.	.	.	.	.
8A\	.	.	16cc#\LL	.	8r	.	8r	.
.	.	.	16cc#\	.	.	.	.	.
8F#\J	.	8cc#\	16ff#\	.	8c#\	a-	8ff#\	a-
.	.	.	16aa\JJ	.	.	.	.	.
!	!	!	!	!	!LO:LB:g=original	!	!LO:LB:g=original	!
=25	=25	=25	=25	=25	=25	=25	=25	=25
!	!	!LO:N:vis=4.	!	!	!	!	!	!
.	.	.	8qqee/	.	.	.	8qqee/	.
8B\L	.	8.f#/	4dd\	.	4F#/	-men	4dd\	-men
8A\	.	.	.	.	.	.	.	.
!	!	!LO:N:vis=8	!	!	!	!	!	!
.	.	16dd\	.	.	.	.	.	.
!	!	!LO:N:vis=4.	!	!	!	!	!	!
8B\	.	8.e/	16dd\LL	.	8r	.	8r	.
.	.	.	16dd\	.	.	.	.	.
8G\J	.	.	16gg\	.	8d\L	Sae-	8gg\	a-
!	!	!LO:N:vis=8	!	!	!	!	!	!
.	.	16dd\	16bb\JJ	.	.	.	.	.
!	!	!	!LO:TX:a:t=problem:kreska taktowa przed nutą	!	!	!	!	!
!	!	!	!LO:TX:a:t=problem:mixed beam	!	!	!	!	!
8A\L	.	8e/L	8cc#\L	.	8c#\J	-cu-	8ee\L	-men
16F#\L	.	16a/L	8dd\	.	8d\	-lo-	8ff#\J	.
16G\JJ	.	16f#/JJ	.	.	.	.	.	.
!LO:TX:a:t=problem:mixed beam	!	!	!	!	!	!	!	!
8A\L	.	8e/L	8e/	.	4c#\	-rum	4ee\	a-
8AA/J	.	8e/J	8cc#\J	.	.	.	.	.
!	!	!LO:LB:g=original	!	!	!	!	!	!
=26	=26	=26	=26	=26	=26	=26	=26	=26
4D\	.	4d/	4dd\	.	4d\	a-	4ff#\	-men
4A\	.	4ee\	4ccc#\	.	4c#\	.	4ee\	a-
4D\	.	4ff#\	4ddd\	.	4d\	-men	4ff#\	-men
4r	.	4r	4r	.	4r	.	4r	.
==;;	==	==;	==	==	==	==	==	==
*-	*-	*-	*-	*-	*-	*-	*-	*-
!!!system-decoration: [(g1)][(g2)][(g3)]
!!!ENC:Anna Matuszewska
!!!END:2020-09-08
!!!ENC: Marcin Jachim
!!!END: 2020-05-15
